X:200
T:Waiting for Janet
C:Andy Cutting
Z:robin.beech@mcgill.ca
R:jig
M:6/8
L:1/8
K:G
D |: DEG E2D | DEG A2D | DEG B3 | AGE GED |
DEG A2D | DEG ABD | ABc-c2B- | BGE A3- :| A3 |:
ABd B3 | ABd A2G | E2D DEG | A3 |
ABd B3 | ABd F2E- | E2D DEG | A3 :|
